svgs/sharp-regular/trash-can.svg

<svg xmlns="http://www.w3.org/2000/svg" viewBox="0 0 448 512"><!--! Font Awesome Pro 6.4.2 by @fontawesome - https://fontawesome.com License - https://fontawesome.com/license (Commercial License) Copyright 2023 Fonticons, Inc. --><path d="M160 0H147.2L140 10.7 93.8 80H80 32 0v48H32V464v48H80 368h48V464 128h32V80H416 368 354.2L308 10.7 300.8 0H288 160zM296.5 80h-145l21.3-32H275.2l21.3 32zM80 464V128H368V464H80zm80-272V176H128v16V400v16h32V400 192zm80 0V176H208v16V400v16h32V400 192zm80 0V176H288v16V400v16h32V400 192z"/></svg>

<svg xmlns="http://www.w3.org/2000/svg" viewBox="0 0 448 512"><!--! Font Awesome Pro 6.6.0 by @fontawesome - https://fontawesome.com License - https://fontawesome.com/license (Commercial License) Copyright 2024 Fonticons, Inc. --><path d="M160 0L147.2 0 140 10.7 93.8 80 80 80 32 80 0 80l0 48 32 0 0 336 0 48 48 0 288 0 48 0 0-48 0-336 32 0 0-48-32 0-48 0-13.8 0L308 10.7 300.8 0 288 0 160 0zM296.5 80l-145 0 21.3-32 102.3 0 21.3 32zM80 464l0-336 288 0 0 336L80 464zm80-272l0-16-32 0 0 16 0 208 0 16 32 0 0-16 0-208zm80 0l0-16-32 0 0 16 0 208 0 16 32 0 0-16 0-208zm80 0l0-16-32 0 0 16 0 208 0 16 32 0 0-16 0-208z"/></svg>
